X:33
M:4/4
L:1/4
K:F
A G A | B3 A | G A F3/2 G/ | (G A3- | A) A G A | B3 A | G A F3/2 G/ | A4- | A c c c | d3 A | A c c3/2 G/ | (G B3- | B) B A G | A3 F | F G G3/2 A/ | A4- | A c c c | d3 A | A c c3/2 G/ | (G B3- | B) B A G | A3 !sintro!F | F G G3/2 F/ | F4- | F !eintro!|]
